X:780
T:The Blazing Turf Fire.
C:Cronin.
B:O'Neill's Music of Ireland
N:O'Neill's - 780
Z:Transcribed by Stephen Foy (shf@access.digex.net)
Z:abc 1.6
M:6/8
R:Jig
K:D
A|ded df/e/d|cAB dcBc|ded afd|ecA ABc|ded df/e/d|\
cAB cde|gfde dcA|GED D2:|
||G|EDE/F/ GAG|EDE G2 A|EDE/F/ GAc|BAG A2 G|\
EDE/F/ GAG|E2 E Geg|gfde dcA|GED D2:|
